!!!OTL: Das Laemmchen.
!!!OTL-incipit:EIN JUNGES LAEMMCHEN WEISS WIE SCHNEE
!!!COM: G. W. Fink
!!!ARE: Europa, Mitteleuropa, Deutschland
!!!SCT: F0274
!!!TXL: @@DE
!!!YEM: Copyright 1995, estate of Helmut Schaffrath.
**kern	**text
*ICvox	*
*clefG2	*
*M6/8	*
*k[f#]	*
*G:	*
!LO:TX:a:t=Mäßig.	!
{(16b\L	1._Ein
16aJ)	.
=1	=1
4g	junges
8g	.
4g	Lämmchen,
8a	.
=2	=2
4b	weiß
8b	wie
4a}	Schnee:
{8dd	ging
=3	=3
4cc	einſt
8a	mit
4b	auf
8g	die
=4	=4
4.b	Wei-
8a	-de;
8r}	.
{8d	muth-
=5	=5
4cc	-wil-
8dd	-lig
4cc	ſprang
8dd	es
=6	=6
4ee	in
8dd	den
4b}	Klee
{8b	mit
=7	=7
4a	aus-
8cc	-ge-
4f#	-laßner
8d	.
=8	=8
4.a	Freu-
8g	-de.
8r}	.
==	==
!!!AGN: Jugend - Lied, Belehrung
!!!ONB: ESAC (Essen Associative Code) Database: FINK
!!!AMT: compound duple
!!!AIN: vox
!!!EED: Helmut Schaffrath
!!!EEV: 1.0
!!!GTL: Jugendlieder
!!Text: Fr. J. Bertuch
!!!source: Musikalischer Hausschatz der Deutschen. Eine Sammlung von über 1000 Liedern und Gesängen mit Singstimmen und Klavierbegleitung. Leipzig, Litterarisches Verlags-Haus.
!!!page: 164
!!!URL-scan: https://www.digitale-sammlungen.de/en/view/bsb11144622?page=162,163
!!!ENC: Anna Maria Matuszewska
!!!EEV: 2024/30/07
*-	*-